!!!OTL: Buchsbaum und Felbinger
!!!ARE: Europa, Mitteleuropa, Deutschland
!!!SCT: A0273A
!!!YEM: Copyright 1995, estate of Helmut Schaffrath.
**kern
*ICvox
*Ivox
!! Mixed meters:  6/2; 4/2
*M6/2
*k[f#]
*G:
{2g
=1
1g
1g
2a
2b
=2
1cc
2cc
1cc}
{2cc
=3
1cc
1cc
2b
2a
=4
2b
2a
2g
1a}
{2a
=5
1fn
2f#
1e
2e
=6
2.d
4e
2fn
1g}
{2g
=7
*M4/2
2cc
2b
2a
2g
=8
1a
1g}
==
!!!AGN: Romanze, Ballade, Lied
!! Finck 1536 No. 46
!!!ONB: ESAC (Essen Associative Code) Database: ALTDEU
!!!AMT: irregular
!!!AIN: vox
!!!EED: Helmut Schaffrath
!!!EEV: 1.0
*-
